X:1
T:Meine Seel erhebt den Herrn
T:Meine Seel erhebt den Herrn
T:from Tabulaturbuch auff dem Instrumente, 1598
T:Augustus Nörmiger (~1560-1613)
C:Augustus Nörmiger
%%score { ( 1 2 3 ) | 4 }
L:1/8
Q:1/4=74
M:4/4
K:C
V:1 treble nm="Organ"
V:2 treble 
V:3 treble 
V:4 bass 
V:1
 A3 =B c2 A2 | A2 A2 _B2 A2 | G4 !breath!F4 | A3 =B c2 G2 | G2 G2 G2 G2 | G2 G2 G2 DE | %6
 F4[Q:1/4=73][Q:1/4=70]"^.8" E4[Q:1/4=68][Q:1/4=66][Q:1/4=65][Q:1/4=73]"^.9"[Q:1/4=72]"^.4"[Q:1/4=71]"^.7" | %7
[Q:1/4=56] !fermata!D4 |] %8
V:2
 F4 E2 F2 | F2 F2 F2 F2 | FE/D/ E2 C4 | F4 E2 E2 | E4 E2 E2 | DC_B,A, B,C D2 | %6
 D2"^.4" D2 D"^.4"=C/"^.9"=B,/"^.2" ^C2 | A,4 |] %8
V:3
[I:staff +1] C4 C2 C2 |[I:staff -1] C2 C2 D2 C2 | C4 A,4 |[I:staff +1] C4 C4 |[I:staff -1] C8 | %5
[I:staff +1] G,8 |[I:staff -1] A,4 A,4 | ^F,4 |] %8
V:4
 F,4 C,2 F,2 | F,2 F,2 _B,,2 F,2 | C,4 F,,4 | F,4 C,3 D, | E,D,C,D, E,D,E,F, | %5
 G,2 G,,2- G,,A,,_B,,C, | D,D,, D,C,/=B,,/ A,,4 | !fermata!D,,4 |] %8

